X: 181
T:John D McGurk's
R:jig
C:Jackie Daly
D:First Month of Summer
Z:transcribed by Alf Warnock - alf0@rogers.com - www.alfwarnock.info/alfs
Z:also gets played as a reel on the album
M:6/8
K:D
e|:fde faa|gec ABc|dAd eaa|ged cde|
fde faa|gec ABc|dAd eaa|gec d2e:|
K:A
|:cea ece|dBG EGB|AEA Bee|cee Bee|cea ece|
dBG EGB|[1 AEA Bec|dBG A2B:|[2 Ace dfa|egb a2=g|]
